X: 20972
T: Jug Of Punch, The
R: reel
M: 4/4
K: Ddorian
A,|:A,DDC DE^FG|AGGG AGcG|EA,A,A, CDE^F|GGAG FDEC|
A,DDE EDDE|F2ED CDEG|cded c AGE|1 FDEC D3C:|2 FDEC D2 (3E^FG||
|:Adde f2ed|e^fed cAAB|AGAB cBcd|eaa^g ed (3^cBA|
d2de f2ed|e^fed cAAB|c3A B2AG|1 FDEC D2 (3E^FG:|2 FDEC D3||

